Adwaita++/actions/16/fcitx-unikey.svg

<svg height="16" width="16" xmlns="http://www.w3.org/2000/svg">
  <path d="m2 0c-1.108 0-2 .892-2 2v12c0 1.108.892 2 2 2h12c1.108 0 2-.892 2-2v-12c0-1.108-.892-2-2-2zm1 3h1v1.5c0 .6944.1274 1.0772.2656 1.25.1383.1728.3177.25.7344.25s.5961-.0772.7344-.25c.1382-.1728.2656-.5556.2656-1.25v-1.5h1v1.5c0 .8056-.1226 1.4228-.4844 1.875-.3617.4522-.9323.625-1.5156.625s-1.1539-.1728-1.5156-.625c-.3618-.4522-.4844-1.0694-.4844-1.875zm8 0h1v4h-1zm-5 7h1l2 2.5v-2.5h1v4h-1l-2-2.5v2.5h-1z" fill="#474747"/>
</svg>

<svg xmlns="http://www.w3.org/2000/svg" width="16" height="16" version="1.1">
 <defs>
  <style id="current-color-scheme" type="text/css">
   .ColorScheme-Text { color:#474747; } .ColorScheme-Highlight { color:#4285f4; }
  </style>
 </defs>
 <path style="fill:currentColor" class="ColorScheme-Text" d="M 2,0 C 0.892,0 0,0.892 0,2 V 14 C 0,15.108 0.892,16 2,16 H 14 C 15.108,16 16,15.108 16,14 V 2 C 16,0.892 15.108,0 14,0 Z M 3,3 H 4 V 4.5 C 4,5.1944 4.1274,5.5772 4.2656,5.75 4.4039,5.9228 4.5833,6 5,6 5.4167,6 5.5961,5.9228 5.7344,5.75 5.8726,5.5772 6,5.1944 6,4.5 V 3 H 7 V 4.5 C 7,5.3056 6.8774,5.9228 6.5156,6.375 6.1539,6.8272 5.5833,7 5,7 4.4167,7 3.8461,6.8272 3.4844,6.375 3.1226,5.9228 3,5.3056 3,4.5 Z M 11,3 H 12 V 7 H 11 Z M 6,10 H 7 L 9,12.5 V 10 H 10 V 14 H 9 L 7,11.5 V 14 H 6 Z"/>
</svg>
